!!!OTL: Wiedersehen an der Bahre Als wie die Sonn' am Himmel glaenzt
!!!ARE: Europa, Mitteleuropa, Deutschland / France, Lothringen
!!!YOR: 3, S. 80
!!    18?? gedruckt (Fliegendes Blatt) in Saargemuend (Mitte d. 19. Jh.)
!!!SCT: Q1056F
!!!YEM: Copyright 1995, estate of Helmut Schaffrath.
**kern
*ICvox
*Ivox
*M3/4
*k[f#]
*G:
{8d
8e
8d
=1
4.b
8g
8a
8g
=2
4f#
8r}
{8d
8e
8d
=3
4cc
8b
8a
4a
=4
4g
8r}
{8g
8f#
8a
=5
4dd
8cc
8a
8g
8b
=6
8b
16cc
16b
8a}
{8g
8f#
8a
=7
4dd
8cc
8a
4a
=8
4g
8r}
==
!!!AGN: historisches Lied, Napoleon
!! Melodievergleich mit Q0056 , anderes Lied.
!!!ONB: ESAC (Essen Associative Code) Database: BALLADE
!!!AMT: simple triple
!!!AIN: vox
!!!EED: Helmut Schaffrath
!!!EEV: 1.0
*-
